!!!OTL: As Maadla von Gmaa hot schoena weissa Baa
!!!ARE: Europa, Mitteleuropa, Deutschland, Ober - Franken, Breitenlesau
!!!SCT: V0006A
!!!YEM: Copyright 1995, estate of Helmut Schaffrath.
**kern
*ICvox
*Ivox
*M2/4
*k[f#c#g#d#]
*E:
{8b
=1
8cc#
8b
8a#
8b
=2
4g#
8r}
{8b
=3
8cc#
8b
8a#
8b
=4
4a
8r}
{8b
=5
8cc#
8b
8a#
8b
=6
8.dd#
16dd#
8dd#
8dd#
=7
8cc#
8cc#
4cc#
=8
4b
8r}
{8b
=9
8cc#
8b
8a#
8b
=10
4g#
8r}
{8b
=11
8cc#
8b
8a#
8b
=12
4a
8r}
{8b
=13
8cc#
8b
8a#
8b
=14
8.dd#
16dd#
8dd#
8dd#
=15
8b
8a
8g#
8f#
=16
4e
8r}
==
!!!AGN: Liebes - Lied
!!!ONB: ESAC (Essen Associative Code) Database: VARIANT
!!!AMT: simple duple
!!!AIN: vox
!!!EED: Helmut Schaffrath
!!!EEV: 1.0
*-
